X: 40008
T: Three Merry Sisters Of Fate, The
R: reel
M: 4/4
K: Dmajor
d2fd edce|fB~B2 fBce|d2fd edcd|eA~A2 eAce:|
ea^ga fece|fB~B2 fece|a2^ga fecd|eA~A2 eAcd|
ea^ga fece|fB~B2 fece|a2^ga fgaf|edef gece||

